src/assets/svg-icons/coins.svg

<svg xmlns="http://www.w3.org/2000/svg" viewBox="0 0 24 24" fill="none"><path fill="currentColor" d="M21 8c0 1.02-1.186 1.92-3 2.462-1.134.34-2.513.538-4 .538s-2.866-.199-4-.538C8.187 9.92 7 9.02 7 8c0-1.657 3.134-3 7-3s7 1.343 7 3z"/><path stroke="currentColor" stroke-linecap="round" stroke-linejoin="round" stroke-width="2" d="M21 8c0-1.657-3.134-3-7-3S7 6.343 7 8m14 0v4c0 1.02-1.186 1.92-3 2.462-1.134.34-2.513.538-4 .538s-2.866-.199-4-.538C8.187 13.92 7 13.02 7 12V8m14 0c0 1.02-1.186 1.92-3 2.462-1.134.34-2.513.538-4 .538s-2.866-.199-4-.538C8.187 9.92 7 9.02 7 8"/><path stroke="currentColor" stroke-linecap="round" stroke-linejoin="round" stroke-width="2" d="M3 12v4c0 1.02 1.187 1.92 3 2.462 1.134.34 2.513.538 4 .538s2.866-.199 4-.538c1.813-.542 3-1.442 3-2.462v-1M3 12c0-1.197 1.635-2.23 4-2.711M3 12c0 1.02 1.187 1.92 3 2.462 1.134.34 2.513.538 4 .538.695 0 1.366-.043 2-.124"/></svg>

<svg width="24" height="24" viewBox="0 0 24 24" fill="none" xmlns="http://www.w3.org/2000/svg">
<path d="M21 8C21 9.02 19.814 9.92 18 10.462C16.866 10.802 15.487 11 14 11C12.513 11 11.134 10.801 10 10.462C8.187 9.92 7 9.02 7 8C7 6.343 10.134 5 14 5C17.866 5 21 6.343 21 8Z" fill="#2C4251"/>
<path d="M21 8C21 6.343 17.866 5 14 5C10.134 5 7 6.343 7 8M21 8V12C21 13.02 19.814 13.92 18 14.462C16.866 14.802 15.487 15 14 15C12.513 15 11.134 14.801 10 14.462C8.187 13.92 7 13.02 7 12V8M21 8C21 9.02 19.814 9.92 18 10.462C16.866 10.802 15.487 11 14 11C12.513 11 11.134 10.801 10 10.462C8.187 9.92 7 9.02 7 8" stroke="#2C4251" stroke-width="2" stroke-linecap="round" stroke-linejoin="round"/>
<path d="M3 12V16C3 17.02 4.187 17.92 6 18.462C7.134 18.802 8.513 19 10 19C11.487 19 12.866 18.801 14 18.462C15.813 17.92 17 17.02 17 16V15M3 12C3 10.803 4.635 9.77 7 9.289M3 12C3 13.02 4.187 13.92 6 14.462C7.134 14.802 8.513 15 10 15C10.695 15 11.366 14.957 12 14.876" stroke="#2C4251" stroke-width="2" stroke-linecap="round" stroke-linejoin="round"/>
</svg>
